mimes/scalable/multipart-encrypted.svg

<?xml version="1.0" encoding="UTF-8" standalone="no"?>
<svg
   xmlns:dc="http://purl.org/dc/elements/1.1/"
   xmlns:cc="http://creativecommons.org/ns#"
   xmlns:rdf="http://www.w3.org/1999/02/22-rdf-syntax-ns#"
   xmlns:svg="http://www.w3.org/2000/svg"
   xmlns="http://www.w3.org/2000/svg"
   xmlns:sodipodi="http://sodipodi.sourceforge.net/DTD/sodipodi-0.dtd"
   xmlns:inkscape="http://www.inkscape.org/namespaces/inkscape"
   width="48"
   height="48"
   viewBox="0 0 12.7 12.7"
   version="1.1"
   id="svg4"
   sodipodi:docname="multipart-encrypted.svg"
   inkscape:version="0.92.3 (2405546, 2018-03-11)">
  <metadata
     id="metadata10">
    <rdf:RDF>
      <cc:Work
         rdf:about="">
        <dc:format>image/svg+xml</dc:format>
        <dc:type
           rdf:resource="http://purl.org/dc/dcmitype/StillImage" />
        <dc:title></dc:title>
      </cc:Work>
    </rdf:RDF>
  </metadata>
  <defs
     id="defs8" />
  <sodipodi:namedview
     pagecolor="#ffffff"
     bordercolor="#666666"
     borderopacity="1"
     objecttolerance="10"
     gridtolerance="10"
     guidetolerance="10"
     inkscape:pageopacity="0"
     inkscape:pageshadow="2"
     inkscape:window-width="1366"
     inkscape:window-height="715"
     id="namedview6"
     showgrid="false"
     showguides="true"
     inkscape:guide-bbox="true"
     inkscape:snap-global="true"
     inkscape:zoom="3.8817216"
     inkscape:cx="24"
     inkscape:cy="24"
     inkscape:window-x="0"
     inkscape:window-y="27"
     inkscape:window-maximized="1"
     inkscape:current-layer="svg4" />
  <path
     inkscape:connector-curvature="0"
     style="opacity:1;fill:#aa0000;fill-opacity:1;fill-rule:nonzero;stroke:none;stroke-width:0.50711805;stroke-linecap:round;stroke-linejoin:bevel;stroke-miterlimit:4;stroke-dasharray:none;stroke-opacity:1"
     d="m 7.4452731,0.01688326 c -0.040983,0 -0.078161,0.0127642 -0.1049033,0.0330729 -0.025929,0.0196897 -0.041407,0.047003 -0.042375,0.0769979 0.1425477,0.0568061 0.2716984,0.13629486 0.3782716,0.24236248 0.1894734,0.18857428 0.312955,0.44366748 0.3302125,0.73018816 h 0.00672 v 0.068213 0.1441772 0.1369425 0.1927531 c 0,0.2812905 0.2266883,0.5079794 0.5079795,0.5079794 h 0.1183391 l -5.291e-4,0.00568 h 1.6924026 c 0.329951,0 0.613684,0.1491999 0.819072,0.3731038 V 1.1020885 0.5248626 c 0,-0.14064565 -0.05654,-0.26789289 -0.148312,-0.35966798 -0.09178,-0.0917751 -0.219024,-0.14831136 -0.35967,-0.14831136 H 9.1423149 7.8824437 Z"
     id="path965" />
  <path
     style="opacity:1;fill:#333333;fill-opacity:1;fill-rule:nonzero;stroke:none;stroke-width:0.50711805;stroke-linecap:round;stroke-linejoin:bevel;stroke-miterlimit:4;stroke-dasharray:none;stroke-opacity:1"
     d="m 2.9460732,0.60831414 c -0.6285519,0 -1.134298,0.50626306 -1.134298,1.13481456 v 9.9012043 c 0,0.628551 0.5057461,1.134814 1.134298,1.134814 h 4.2855261 2.522327 c 0.6285527,0 1.1342987,-0.506263 1.1342987,-1.134814 V 3.7290541 h -0.01292 C 10.810197,3.1632601 10.337709,2.7249809 9.7539263,2.7249809 h -1.692403 v 0 l -0.11781,-0.00568 C 7.6627483,2.7057546 7.4357343,2.4926122 7.4357343,2.2113215 V 2.018564 1.8816215 1.7374442 1.6692313 h -0.0067 C 7.3941823,1.0908651 6.9321933,0.6367337 6.3510473,0.61089793 l -5.29e-4,-0.002585 h -0.02015 z"
     id="path833"
     inkscape:connector-curvature="0" />
  <path
     style="opacity:1;fill:#cccccc;fill-opacity:1;fill-rule:nonzero;stroke:none;stroke-width:0.50711805;stroke-linecap:round;stroke-linejoin:bevel;stroke-miterlimit:4;stroke-dasharray:none;stroke-opacity:1"
     d="m 6.4269983,1.1354138 c 0.263277,0.019482 0.470254,0.2359637 0.470255,0.504362 v 0.2563151 0.125057 0.092501 c 0,0.5757933 0.427721,1.0388807 0.982369,1.1136271 v 0 l 1.962134,0.026872 c 0.2812647,0.00385 0.5079787,0.2266886 0.5079797,0.5079793 v 2.0835938 5.8962809 c 0,0.281291 -0.226688,0.50798 -0.5079797,0.50798 H 7.2315993 2.8582236 c -0.281291,0 -0.50798,-0.226689 -0.50798,-0.50798 V 1.6454602 c 0,-0.2812907 0.226689,-0.5079794 0.50798,-0.5079794 h 3.5692907 z"
     id="path901-5"
     inkscape:connector-curvature="0" />
  <path
     inkscape:connector-curvature="0"
     style="line-height:normal;text-indent:0;text-align:start;text-decoration:none;text-decoration-line:none;text-transform:none;stroke-width:0.26458332;marker:none;fill:#aa0000;fill-opacity:1"
     d="m 4.2123594,2.4919447 a 0.1444625,0.1444625 0 0 0 -0.03669,0.00723 c -0.2055812,0 -0.3111663,0.3255698 -0.5064288,0.3803386 -0.07911,0.3127375 0.1992227,0.1516475 0.342098,0.0093 v 0.9022701 c -0.043656,0.1640416 0.1680101,0.072054 0.2645833,0.095601 V 2.747743 C 4.2576654,2.6643993 4.3218144,2.499076 4.226829,2.4924614 v -5.159e-4 a 0.1444625,0.1444625 0 0 0 -0.01447,-8e-7 z m 0.01447,2.4122559 a 0.14631458,0.14631458 0 0 0 -0.05116,0.00775 c -0.2055812,0 -0.3111664,0.3247885 -0.5064289,0.3798218 -0.07911,0.312473 0.1992228,0.1516478 0.3420981,0.0093 v 0.9027872 c -0.043656,0.1640416 0.1680101,0.071272 0.2645833,0.095085 V 5.1600006 C 4.2576659,5.0763925 4.3218149,4.9108171 4.2268295,4.9042025 Z m 0.8934855,0.00775 C 4.7461942,4.8968717 4.6632968,5.322917 4.6717634,5.6147524 4.6516551,5.9097628 4.752015,6.3333031 5.120315,6.3227197 5.4862338,6.3367426 5.5847413,5.9091593 5.5688663,5.6178531 5.5850059,5.3260176 5.4862338,4.8989886 5.120315,4.9119529 Z m 0,0.2196251 c 0.1397,0.00265 0.1561042,0.1774031 0.1653646,0.2811198 C 5.3068466,5.6145726 5.3356406,6.278999 5.0009424,6.0276448 4.9512008,5.7545971 4.8430317,5.2895342 5.120315,5.131578 Z M 4.21236,7.3169741 a 0.1444625,0.1444625 0 0 0 -0.03669,0.00723 c -0.2055813,0 -0.3111664,0.3247884 -0.5064289,0.3798218 -0.07911,0.3127375 0.1992228,0.1521642 0.342098,0.00982 v 0.9022704 c -0.043656,0.1640419 0.1680102,0.072054 0.2645834,0.095602 V 7.5727717 C 4.2576659,7.489428 4.3218149,7.3235879 4.2268295,7.3169734 a 0.1444625,0.1444625 0 0 0 -0.014469,7e-7 z m 2.1487061,0 a 0.1444625,0.1444625 0 0 0 -0.03669,0.00723 c -0.2055812,0 -0.311431,0.3247884 -0.5064292,0.3798218 -0.079375,0.3127375 0.1989585,0.1521642 0.3420981,0.00982 v 0.9022729 c -0.043921,0.1640419 0.1680101,0.072054 0.264583,0.095602 V 7.5727717 C 6.4061072,7.489428 6.4705208,7.3235879 6.3755354,7.3169734 a 0.1444625,0.1444625 0 0 0 -0.014469,7e-7 z M 5.120315,7.3242041 C 4.7461942,7.3093912 4.6632968,7.7356886 4.6717634,8.0275241 4.6516551,8.3225345 4.752015,8.7455577 5.120315,8.7349744 5.4862338,8.7489973 5.5847413,8.3216788 5.5688663,8.030108 5.5850059,7.7385372 5.4862338,7.3112433 5.120315,7.3242079 Z m 0,0.2196248 c 0.1397,0.00265 0.1561042,0.1781844 0.1653646,0.2816365 C 5.3068466,8.0273425 5.3356406,8.6917692 5.0009424,8.440415 4.9512008,8.1673688 4.8430317,7.7017889 5.120315,7.5438327 Z M 4.2268295,9.7292291 a 0.14631458,0.14631458 0 0 0 -0.05116,0.00775 c -0.2055812,0 -0.3111664,0.3247889 -0.5064289,0.3798219 -0.07911,0.312737 0.1992228,0.151647 0.3420981,0.0093 v 0.902787 c -0.043656,0.164042 0.1680101,0.07127 0.2645833,0.09508 V 9.9850293 C 4.2576659,9.9016856 4.3218149,9.7358455 4.2268295,9.7292309 Z m 2.1487059,0 a 0.14631458,0.14631458 0 0 0 -0.05116,0.00775 c -0.2055812,0 -0.311431,0.3247889 -0.5064292,0.3798219 -0.079375,0.312737 0.1989585,0.151647 0.3420981,0.0093 v 0.902787 c -0.043921,0.164042 0.1680104,0.07127 0.2645833,0.09508 V 9.9850293 C 6.4061072,9.9016856 6.4705208,9.7358455 6.3755354,9.7292309 Z M 5.120315,9.7369814 C 4.7461942,9.7219001 4.6632968,10.147681 4.6717634,10.439781 4.6516551,10.734527 4.752015,11.158596 5.120315,11.147748 5.4862338,11.161771 5.5847413,10.734452 5.5688663,10.442881 5.5850059,10.15131 5.4862338,9.7240168 5.120315,9.7369814 Z m 2.1487061,0 C 6.8951646,9.7219001 6.8120029,10.147681 6.8204696,10.439781 c -0.020108,0.294746 0.080252,0.718815 0.4485515,0.707967 0.3659185,0.01402 0.4644263,-0.413296 0.4485513,-0.704867 C 7.733712,10.15131 7.6349396,9.7240168 7.2690211,9.7369814 Z M 5.120315,9.9566062 c 0.1397,0.00265 0.1561042,0.1776678 0.1653646,0.2811198 0.021167,0.201877 0.049961,0.866303 -0.2847372,0.61495 C 4.9512008,10.57989 4.8430317,10.114562 5.120315,9.9566062 Z m 2.1487061,0 c 0.1402292,0.00265 0.1558393,0.1776678 0.1653646,0.2811198 0.021167,0.201877 0.050225,0.866303 -0.2847372,0.61495 C 7.1001715,10.57989 6.9917378,10.114562 7.2690211,9.9566062 Z"
     id="path872" />
</svg>

<?xml version="1.0" encoding="UTF-8" standalone="no"?><svg xmlns:dc="http://purl.org/dc/elements/1.1/" xmlns:cc="http://creativecommons.org/ns#" xmlns:rdf="http://www.w3.org/1999/02/22-rdf-syntax-ns#" xmlns="http://www.w3.org/2000/svg" width="48" height="48" viewBox="0 0 12.7 12.7"><metadata><rdf:RDF><cc:Work><dc:format>image/svg+xml</dc:format><dc:type rdf:resource="http://purl.org/dc/dcmitype/StillImage"/><dc:title/></cc:Work></rdf:RDF></metadata><path d="M7.45.02a.17.17 0 0 0-.11.03.1.1 0 0 0-.04.08 1.12 1.12 0 0 1 .7.97h.01v.55c0 .27.23.5.51.5H10.34c.32 0 .6.15.81.38V.52a.5.5 0 0 0-.5-.5H7.87z" fill="#a00"/><path d="M2.95.6c-.63 0-1.14.51-1.14 1.14v9.9c0 .63.5 1.14 1.14 1.14H9.75c.63 0 1.14-.5 1.14-1.14V3.73h-.01c-.07-.57-.54-1-1.13-1H8.06l-.12-.01a.52.52 0 0 1-.5-.5v-.55h-.01A1.12 1.12 0 0 0 6.35.6h-.02z" fill="#333"/><path d="M6.43 1.14a.5.5 0 0 1 .47.5v.48c0 .57.42 1.03.98 1.1l1.96.03c.28 0 .51.23.51.51v7.99a.5.5 0 0 1-.5.5H2.85a.5.5 0 0 1-.51-.5V1.64c0-.29.23-.51.5-.51h3.58z" fill="#ccc"/><path style="line-height:normal;text-indent:0;text-align:start;text-decoration-line:none;text-transform:none;marker:none" d="M4.21 2.5a.14.14 0 0 0-.03 0c-.21 0-.32.32-.51.38-.08.31.2.15.34 0v.91c-.04.17.17.07.27.1V2.75c-.02-.09.04-.25-.05-.26a.14.14 0 0 0-.02 0zm.02 2.4a.15.15 0 0 0-.05.01c-.21 0-.32.33-.51.38-.08.31.2.15.34.01v.9c-.04.17.17.08.27.1V5.16c-.02-.08.04-.25-.05-.26zm.89.01c-.37-.01-.46.41-.45.7-.02.3.08.72.45.71.37.02.46-.41.45-.7.02-.3-.08-.72-.45-.7zm0 .22c.14 0 .16.18.17.28.02.2.05.87-.29.62-.05-.28-.16-.74.12-.9zm-.9 2.19a.14.14 0 0 0-.04 0c-.21 0-.32.33-.51.38-.08.32.2.16.34.01v.9c-.04.17.17.08.27.1V7.57c-.02-.08.04-.25-.05-.25a.14.14 0 0 0-.02 0zm2.14 0a.14.14 0 0 0-.04 0c-.2 0-.3.33-.5.38-.08.32.2.16.34.01v.9c-.04.17.17.08.26.1V7.57c-.01-.08.05-.25-.04-.25a.14.14 0 0 0-.02 0zm-1.24 0c-.37-.01-.46.42-.45.7-.02.3.08.73.45.71.37.02.46-.4.45-.7.02-.3-.08-.72-.45-.7zm0 .22c.14 0 .16.18.17.29.02.2.05.86-.29.61-.05-.27-.16-.74.12-.9zm-.9 2.19a.15.15 0 0 0-.04 0c-.21 0-.32.33-.51.39-.08.31.2.15.34 0v.9c-.04.17.17.08.27.1V10c-.02-.09.04-.25-.05-.26zm2.16 0a.15.15 0 0 0-.06 0c-.2 0-.3.33-.5.39-.08.31.2.15.34 0v.9c-.04.17.17.08.26.1V10c-.01-.09.05-.25-.04-.26zm-1.26 0c-.37 0-.46.42-.45.71-.02.3.08.72.45.7.37.02.46-.4.45-.7.02-.29-.08-.72-.45-.7zm2.15 0c-.37 0-.46.42-.45.71-.02.3.08.72.45.7.36.02.46-.4.45-.7.01-.29-.09-.72-.45-.7zm-2.15.23c.14 0 .16.17.17.28.02.2.05.86-.29.61-.05-.27-.16-.74.12-.9zm2.15 0c.14 0 .15.17.16.28.03.2.05.86-.28.61-.05-.27-.16-.74.12-.9z" fill="#a00"/></svg>
